dist/images/github-circle.svg

<svg width="18" height="18" viewBox="0 0 18 18" fill="none" xmlns="http://www.w3.org/2000/svg">
<path d="M8.99996 0.246704C6.86291 0.246793 4.79561 1.0073 3.16797 2.39215C1.54033 3.777 0.458572 5.69583 0.116244 7.80529C-0.226085 9.91475 0.193359 12.0772 1.29952 13.9057C2.40569 15.7342 4.12639 17.1094 6.15375 17.7853C6.60375 17.8641 6.77249 17.5941 6.77249 17.3578C6.77249 17.1441 6.76124 16.4353 6.76124 15.6816C4.49999 16.0978 3.915 15.1304 3.735 14.6241C3.53527 14.1318 3.21865 13.6954 2.8125 13.3529C2.49751 13.1841 2.04751 12.7679 2.80125 12.7566C3.08905 12.7879 3.36509 12.888 3.60597 13.0486C3.84684 13.2092 4.04546 13.4255 4.185 13.6791C4.30809 13.9002 4.47361 14.0949 4.67206 14.2519C4.87052 14.409 5.09802 14.5253 5.34152 14.5943C5.58502 14.6633 5.83973 14.6835 6.09107 14.6539C6.34241 14.6243 6.58543 14.5453 6.80621 14.4216C6.84517 13.9641 7.04908 13.5363 7.37997 13.2179C5.37749 12.9929 3.285 12.2166 3.285 8.77417C3.27235 7.87971 3.60242 7.0143 4.2075 6.35544C3.93235 5.57804 3.96454 4.72491 4.29749 3.97046C4.29749 3.97046 5.05121 3.7342 6.77248 4.89295C8.24512 4.48793 9.7998 4.48793 11.2724 4.89295C12.9937 3.72296 13.7474 3.97046 13.7474 3.97046C14.0804 4.7249 14.1126 5.57805 13.8374 6.35544C14.4443 7.01318 14.7747 7.87934 14.7599 8.77417C14.7599 12.2279 12.6562 12.9929 10.6537 13.2179C10.8685 13.4356 11.0339 13.697 11.1387 13.9842C11.2435 14.2715 11.2853 14.578 11.2612 14.8829C11.2612 16.0866 11.2499 17.0541 11.2499 17.3579C11.2499 17.5941 11.4187 17.8754 11.8687 17.7854C13.8925 17.1039 15.6082 15.7255 16.7097 13.8961C17.8111 12.0666 18.2266 9.90528 17.8819 7.79786C17.5372 5.69045 16.4548 3.77411 14.8278 2.39095C13.2009 1.00778 11.1354 0.247816 8.99996 0.246704Z" fill="#589574"/>
</svg>

<svg width="18" height="18"  viewBox="0 0 18 18" fill="none" xmlns="http://www.w3.org/2000/svg"><path d="M9 .247a9 9 0 00-2.846 17.538c.45.08.618-.19.618-.427 0-.214-.01-.923-.01-1.676-2.262.416-2.847-.552-3.027-1.058a3.272 3.272 0 00-.922-1.271c-.315-.169-.765-.585-.012-.596a1.802 1.802 0 011.384.922 1.923 1.923 0 002.621.743c.04-.458.243-.886.574-1.204-2.003-.225-4.095-1.001-4.095-4.444a3.503 3.503 0 01.922-2.419 3.234 3.234 0 01.09-2.385s.754-.236 2.475.923a8.485 8.485 0 014.5 0c1.722-1.17 2.475-.923 2.475-.923a3.23 3.23 0 01.09 2.385c.607.658.938 1.524.923 2.42 0 3.453-2.104 4.218-4.106 4.443a2.131 2.131 0 01.607 1.665c0 1.204-.011 2.171-.011 2.475 0 .236.169.517.619.427A9.005 9.005 0 009 .247z" fill="#589574"/></svg>
